annanekrasova/img/icons/ovals.svg

<svg width="285" height="187" viewBox="0 0 285 187" fill="none" xmlns="http://www.w3.org/2000/svg">
<path d="M284.41 36.1314C284.41 40.7759 280.649 45.3426 273.481 49.5981C266.346 53.8341 255.988 57.6663 243.144 60.8913C217.464 67.3394 181.962 71.3331 142.728 71.3331C103.495 71.3331 67.9922 67.3394 42.3126 60.8913C29.469 57.6663 19.1108 53.8341 11.9754 49.5981C4.80726 45.3426 1.04688 40.7759 1.04688 36.1314C1.04688 31.4868 4.80726 26.9201 11.9754 22.6646C19.1108 18.4286 29.469 14.5964 42.3126 11.3714C67.9922 4.9233 103.495 0.929688 142.728 0.929688C181.962 0.929688 217.464 4.9233 243.144 11.3714C255.988 14.5964 266.346 18.4286 273.481 22.6646C280.649 26.9201 284.41 31.4868 284.41 36.1314Z" stroke="#3E3E3E"/>
<path d="M284.41 71.833C284.41 76.4776 280.649 81.0443 273.481 85.2998C266.346 89.5358 255.988 93.368 243.144 96.593C217.464 103.041 181.962 107.035 142.728 107.035C103.495 107.035 67.9922 103.041 42.3126 96.593C29.469 93.368 19.1108 89.5358 11.9754 85.2998C4.80726 81.0443 1.04688 76.4776 1.04688 71.833C1.04688 67.1885 4.80726 62.6218 11.9754 58.3663C19.1108 54.1303 29.469 50.2981 42.3126 47.0731C67.9922 40.625 103.495 36.6313 142.728 36.6313C181.962 36.6313 217.464 40.625 243.144 47.0731C255.988 50.2981 266.346 54.1303 273.481 58.3663C280.649 62.6218 284.41 67.1885 284.41 71.833Z" stroke="#3E3E3E"/>
<path d="M284.41 107.535C284.41 112.179 280.649 116.746 273.481 121.001C266.346 125.237 255.988 129.07 243.144 132.295C217.464 138.743 181.962 142.736 142.728 142.736C103.495 142.736 67.9922 138.743 42.3126 132.295C29.469 129.07 19.1108 125.237 11.9754 121.001C4.80726 116.746 1.04688 112.179 1.04688 107.535C1.04688 102.89 4.80726 98.3234 11.9754 94.0679C19.1108 89.8319 29.469 85.9998 42.3126 82.7747C67.9922 76.3266 103.495 72.333 142.728 72.333C181.962 72.333 217.464 76.3266 243.144 82.7747C255.988 85.9998 266.346 89.8319 273.481 94.0679C280.649 98.3234 284.41 102.89 284.41 107.535Z" stroke="#B12B00"/>
<path d="M284.41 150.712C284.41 155.356 280.649 159.923 273.481 164.179C266.346 168.415 255.988 172.247 243.144 175.472C217.464 181.92 181.962 185.914 142.728 185.914C103.495 185.914 67.9922 181.92 42.3126 175.472C29.469 172.247 19.1108 168.415 11.9754 164.179C4.80726 159.923 1.04688 155.356 1.04688 150.712C1.04688 146.067 4.80726 141.501 11.9754 137.245C19.1108 133.009 29.469 129.177 42.3126 125.952C67.9922 119.504 103.495 115.51 142.728 115.51C181.962 115.51 217.464 119.504 243.144 125.952C255.988 129.177 266.346 133.009 273.481 137.245C280.649 141.501 284.41 146.067 284.41 150.712Z" stroke="#3E3E3E"/>
</svg>

<svg width="285" height="187" fill="none" xmlns="http://www.w3.org/2000/svg"><path d="M284.41 36.131c0 4.645-3.761 9.212-10.929 13.467-7.135 4.236-17.493 8.068-30.337 11.293-25.68 6.448-61.182 10.442-100.416 10.442-39.233 0-74.736-3.994-100.415-10.442-12.844-3.225-23.202-7.057-30.338-11.293-7.168-4.255-10.928-8.822-10.928-13.467 0-4.644 3.76-9.21 10.928-13.466 7.136-4.236 17.494-8.069 30.338-11.294C67.993 4.923 103.495.93 142.728.93c39.234 0 74.736 3.993 100.416 10.441 12.844 3.225 23.202 7.058 30.337 11.294 7.168 4.255 10.929 8.822 10.929 13.466z" stroke="#3E3E3E"/><path d="M284.41 71.833c0 4.645-3.761 9.211-10.929 13.467-7.135 4.236-17.493 8.068-30.337 11.293-25.68 6.448-61.182 10.442-100.416 10.442-39.233 0-74.736-3.994-100.415-10.442C29.469 93.368 19.11 89.536 11.975 85.3 4.807 81.044 1.047 76.478 1.047 71.833c0-4.644 3.76-9.211 10.928-13.467 7.136-4.236 17.494-8.068 30.338-11.293 25.68-6.448 61.182-10.442 100.415-10.442 39.234 0 74.736 3.994 100.416 10.442 12.844 3.225 23.202 7.057 30.337 11.293 7.168 4.256 10.929 8.823 10.929 13.467z" stroke="#3E3E3E"/><path d="M284.41 107.535c0 4.644-3.761 9.211-10.929 13.466-7.135 4.236-17.493 8.069-30.337 11.294-25.68 6.448-61.182 10.441-100.416 10.441-39.233 0-74.736-3.993-100.415-10.441-12.844-3.225-23.202-7.058-30.338-11.294-7.168-4.255-10.928-8.822-10.928-13.466 0-4.645 3.76-9.212 10.928-13.467C19.111 89.832 29.47 86 42.313 82.775c25.68-6.448 61.182-10.442 100.415-10.442 39.234 0 74.736 3.994 100.416 10.442 12.844 3.225 23.202 7.057 30.337 11.293 7.168 4.255 10.929 8.822 10.929 13.467z" stroke="#B12B00"/><path d="M284.41 150.712c0 4.644-3.761 9.211-10.929 13.467-7.135 4.236-17.493 8.068-30.337 11.293-25.68 6.448-61.182 10.442-100.416 10.442-39.233 0-74.736-3.994-100.415-10.442-12.844-3.225-23.202-7.057-30.338-11.293-7.168-4.256-10.928-8.823-10.928-13.467 0-4.645 3.76-9.211 10.928-13.467 7.136-4.236 17.494-8.068 30.338-11.293 25.68-6.448 61.182-10.442 100.415-10.442 39.234 0 74.736 3.994 100.416 10.442 12.844 3.225 23.202 7.057 30.337 11.293 7.168 4.256 10.929 8.822 10.929 13.467z" stroke="#3E3E3E"/></svg>
